public/assets/images/Sponsors/ethindia.svg

<svg width="300" height="69" viewBox="0 0 300 69" fill="none" xmlns="http://www.w3.org/2000/svg">
<path d="M27.5321 67.7143C20.7405 67.7143 14.0043 65.2916 8.2514 60.6277L7.24048 59.8008L17.6195 47.9647C17.8363 47.7176 18.1514 47.5664 18.4766 47.5386C18.8043 47.5235 19.1321 47.6344 19.3766 47.8538C19.6237 48.0756 19.7724 48.3907 19.8001 48.721C19.8127 49.0512 19.7043 49.3815 19.4875 49.6311L10.8556 59.4706C18.1085 64.8655 26.864 66.5597 35.0875 64.0941L45.1363 61.0664L55.1875 64.0941C63.3959 66.5597 72.1514 64.8781 79.4043 59.4832L70.6514 49.5756C70.4321 49.326 70.3237 48.9958 70.3363 48.6655C70.3514 48.3353 70.5001 48.0202 70.7447 47.7983C70.9917 47.579 71.3195 47.4681 71.6447 47.4832C71.9724 47.4958 72.2875 47.647 72.5043 47.8966L83.0043 59.7882L81.9833 60.6126C73.8833 67.1647 63.8598 69.2975 54.464 66.4765L45.1237 63.6681L35.7833 66.4765C33.1085 67.2882 30.3279 67.6865 27.5321 67.6865" fill="white"/>
<path d="M27.5321 67.7143C20.7405 67.7143 14.0043 65.2916 8.2514 60.6277L7.24048 59.8008L17.6195 47.9647C17.8363 47.7176 18.1514 47.5664 18.4766 47.5386C18.8043 47.5235 19.1321 47.6344 19.3766 47.8538C19.6237 48.0756 19.7724 48.3907 19.8001 48.721C19.8127 49.0512 19.7043 49.3815 19.4875 49.6311L10.8556 59.4706C18.1085 64.8655 26.864 66.5597 35.0875 64.0941L45.1363 61.0664L55.1875 64.0941C63.3959 66.5597 72.1514 64.8781 79.4043 59.4832L70.6514 49.5756C70.4321 49.326 70.3237 48.9958 70.3363 48.6655C70.3514 48.3353 70.5001 48.0202 70.7447 47.7983C70.9917 47.579 71.3195 47.4681 71.6447 47.4832C71.9724 47.4958 72.2875 47.647 72.5043 47.8966L83.0043 59.7882L81.9833 60.6126C73.8833 67.1647 63.8598 69.2975 54.464 66.4765L45.1237 63.6681L35.7833 66.4765C33.1085 67.2882 30.3279 67.6865 27.5321 67.6865" stroke="white" stroke-width="0.54" stroke-linejoin="round"/>
<path d="M45.1237 62.4555L24.6682 50.5513C22.4044 48.8874 20.564 46.7118 19.3086 44.1781C18.0556 41.6471 17.4128 38.8538 17.4556 36.0328L17.6321 23.8387L25.8128 26.5487C25.9766 26.6042 26.1128 26.6723 26.2514 26.7832C26.3724 26.8916 26.4834 27.0176 26.5514 27.1689C26.6321 27.3202 26.6724 27.4714 26.6876 27.6353C26.6876 27.8017 26.6876 27.9655 26.6321 28.1319C26.5766 28.2832 26.496 28.4345 26.3876 28.558C26.2766 28.6815 26.1405 28.7924 26.0044 28.8605C25.8556 28.9311 25.6918 28.9714 25.5279 28.984C25.364 28.984 25.2002 28.984 25.0363 28.916L20.0598 27.2647L19.9363 36.0454C19.9086 38.4529 20.4405 40.8479 21.5195 43.0084C22.5834 45.1689 24.1514 47.042 26.0876 48.4739L45.1363 59.5664L64.4195 48.4739C66.3556 47.0546 67.9363 45.1689 69.0002 43.0084C70.0766 40.8479 70.6086 38.4529 70.5834 36.0328L70.4598 27.2496L64.7876 29.0824C64.4724 29.1781 64.1321 29.1504 63.8447 28.9992C63.5598 28.8479 63.3279 28.5857 63.2321 28.2681C63.1363 27.9529 63.164 27.6076 63.3128 27.3202C63.464 27.0302 63.7237 26.7958 64.0363 26.7L72.8876 23.8513L73.0514 36.005C73.0918 38.8387 72.4514 41.6471 71.196 44.1781C69.9279 46.7118 68.0876 48.9 65.8086 50.5513L65.7002 50.6193L45.1237 62.4555Z" fill="white" stroke="white" stroke-width="0.54" stroke-linecap="round" stroke-linejoin="round"/>
<path d="M45.179 42.5546L27.9277 32.6042L45.179 57.2143L62.0471 32.6042L45.179 42.5546Z" fill="white"/>
<path d="M45.1766 0L28.4724 28.1319L45.1489 38.3445L62.0598 28.2681L45.1766 0Z" fill="white"/>
<path d="M10.6917 51.184C10.4068 51.184 10.132 51.0882 9.91518 50.9093C9.69586 50.7303 9.54712 50.4832 9.47905 50.2084C8.65972 46.5605 6.32779 42.6529 2.75552 38.937L1.35132 37.4899L3.25972 36.8723C7.48745 35.5235 11.1706 35.3294 14.5387 36.3076C14.8513 36.4034 15.1236 36.6101 15.2748 36.9C15.4387 37.1874 15.4639 37.5328 15.3833 37.8479C15.3001 38.1656 15.0833 38.4403 14.7959 38.5916C14.511 38.758 14.1706 38.7857 13.8555 38.7025C11.4429 37.9992 8.89165 37.9992 5.93199 38.7025C9.04292 42.295 11.0875 46.0387 11.9068 49.6311C11.9471 49.8076 11.9471 50.0017 11.9068 50.1807C11.8639 50.3597 11.7833 50.5387 11.6597 50.6748C11.5387 50.8261 11.4001 50.937 11.2236 51.0202C11.0597 51.1034 10.8706 51.1437 10.6917 51.1437" fill="white"/>
<path d="M10.6917 51.184C10.4068 51.184 10.132 51.0882 9.91518 50.9093C9.69586 50.7303 9.54712 50.4832 9.47905 50.2084C8.65972 46.5605 6.32779 42.6529 2.75552 38.937L1.35132 37.4899L3.25972 36.8723C7.48745 35.5235 11.1706 35.3294 14.5387 36.3076C14.8513 36.4034 15.1236 36.6101 15.2748 36.9C15.4387 37.1874 15.4639 37.5328 15.3833 37.8479C15.3001 38.1656 15.0833 38.4403 14.7959 38.5916C14.511 38.758 14.1706 38.7857 13.8555 38.7025C11.4429 37.9992 8.89165 37.9992 5.93199 38.7025C9.04292 42.295 11.0875 46.0387 11.9068 49.6311C11.9471 49.8076 11.9471 50.0017 11.9068 50.1807C11.8639 50.3597 11.7833 50.5387 11.6597 50.6748C11.5387 50.8261 11.4001 50.937 11.2236 51.0202C11.0597 51.1034 10.8706 51.1437 10.6917 51.1437" stroke="white" stroke-width="0.54" stroke-linecap="round" stroke-linejoin="round"/>
<path d="M79.6765 51.184C79.4875 51.184 79.3085 51.1437 79.1446 51.0605C78.9807 50.9773 78.832 50.8538 78.7085 50.7176C78.5874 50.579 78.5043 50.4 78.4639 50.221C78.4236 50.042 78.4236 49.8504 78.4639 49.6714C79.2807 46.079 81.3278 42.3353 84.4362 38.7428C81.4765 38.0395 78.9278 38.0395 76.5127 38.7428C76.3639 38.7832 76.2001 38.7983 76.0362 38.7832C75.8723 38.7706 75.7236 38.7151 75.5723 38.6319C75.4362 38.5513 75.3001 38.4403 75.2043 38.3168C75.1085 38.1933 75.0278 38.0395 74.9874 37.8756C74.9446 37.7244 74.932 37.558 74.9446 37.3941C74.9597 37.2277 75.0127 37.0765 75.0959 36.9252C75.1765 36.7891 75.2874 36.6504 75.4085 36.5546C75.532 36.4588 75.6807 36.3756 75.832 36.3353C79.2001 35.3571 82.8958 35.5361 87.1085 36.8975L89.0194 37.5176L87.6127 38.9622C84.0404 42.6781 81.7085 46.5731 80.8917 50.2336C80.8236 50.5109 80.6723 50.758 80.4555 50.937C80.2362 51.116 79.9639 51.2118 79.6765 51.2118" fill="white"/>
<path d="M79.6765 51.184C79.4875 51.184 79.3085 51.1437 79.1446 51.0605C78.9807 50.9773 78.832 50.8538 78.7085 50.7176C78.5874 50.579 78.5043 50.4 78.4639 50.221C78.4236 50.042 78.4236 49.8504 78.4639 49.6714C79.2807 46.079 81.3278 42.3353 84.4362 38.7428C81.4765 38.0395 78.9278 38.0395 76.5127 38.7428C76.3639 38.7832 76.2001 38.7983 76.0362 38.7832C75.8723 38.7706 75.7236 38.7151 75.5723 38.6319C75.4362 38.5513 75.3001 38.4403 75.2043 38.3168C75.1085 38.1933 75.0278 38.0395 74.9874 37.8756C74.9446 37.7244 74.932 37.558 74.9446 37.3941C74.9597 37.2277 75.0127 37.0765 75.0959 36.9252C75.1765 36.7891 75.2874 36.6504 75.4085 36.5546C75.532 36.4588 75.6807 36.3756 75.832 36.3353C79.2001 35.3571 82.8958 35.5361 87.1085 36.8975L89.0194 37.5176L87.6127 38.9622C84.0404 42.6781 81.7085 46.5731 80.8917 50.2336C80.8236 50.5109 80.6723 50.758 80.4555 50.937C80.2362 51.116 79.9639 51.2118 79.6765 51.2118" stroke="white" stroke-width="0.54" stroke-miterlimit="10"/>
<path d="M25.3915 24.0025C25.2151 24.0025 25.0512 23.9622 24.8873 23.8916C24.7235 23.8235 24.5873 23.7126 24.4638 23.5891C24.3428 23.4529 24.2596 23.3017 24.2067 23.1353C24.1512 22.9714 24.1386 22.7924 24.1512 22.6134L25.1319 13.7067L31.3109 17.9597C31.568 18.1538 31.747 18.4412 31.8151 18.7588C31.868 19.0765 31.8151 19.4067 31.6235 19.6815C31.447 19.9563 31.1596 20.1353 30.847 20.2034C30.5319 20.274 30.1915 20.2034 29.9319 20.0244L27.1512 18.1109L26.6193 22.8882C26.5915 23.1908 26.4428 23.4807 26.2109 23.6849C25.9789 23.8916 25.6915 24.0025 25.3789 24.0025" fill="white"/>
<path d="M25.3915 24.0025C25.2151 24.0025 25.0512 23.9622 24.8873 23.8916C24.7235 23.8235 24.5873 23.7126 24.4638 23.5891C24.3428 23.4529 24.2596 23.3017 24.2067 23.1353C24.1512 22.9714 24.1386 22.7924 24.1512 22.6134L25.1319 13.7067L31.3109 17.9597C31.568 18.1538 31.747 18.4412 31.8151 18.7588C31.868 19.0765 31.8151 19.4067 31.6235 19.6815C31.447 19.9563 31.1596 20.1353 30.847 20.2034C30.5319 20.274 30.1915 20.2034 29.9319 20.0244L27.1512 18.1109L26.6193 22.8882C26.5915 23.1908 26.4428 23.4807 26.2109 23.6849C25.9789 23.8916 25.6915 24.0025 25.3789 24.0025" stroke="white" stroke-width="0.54" stroke-linejoin="round"/>
<path d="M64.568 24.0025C64.268 24.0025 63.9831 23.8916 63.7512 23.6849C63.5193 23.4807 63.3831 23.2034 63.3428 22.9008L62.7277 18.0857L59.9193 20.0118C59.647 20.2034 59.3193 20.274 58.9915 20.2034C58.6638 20.1479 58.3789 19.9563 58.1999 19.6815C58.0109 19.4067 57.9428 19.0765 58.0109 18.7462C58.0789 18.416 58.2554 18.1261 58.5277 17.9471L64.6789 13.7067L65.7957 22.5857C65.8235 22.7647 65.7957 22.9437 65.7554 23.1076C65.7 23.274 65.6193 23.4378 65.4957 23.5613C65.3747 23.7 65.2361 23.7958 65.0747 23.879C64.9109 23.9471 64.7319 23.9899 64.568 23.9899" fill="white"/>
<path d="M64.568 24.0025C64.268 24.0025 63.9831 23.8916 63.7512 23.6849C63.5193 23.4807 63.3831 23.2034 63.3428 22.9008L62.7277 18.0857L59.9193 20.0118C59.647 20.2034 59.3193 20.274 58.9915 20.2034C58.6638 20.1479 58.3789 19.9563 58.1999 19.6815C58.0109 19.4067 57.9428 19.0765 58.0109 18.7462C58.0789 18.416 58.2554 18.1261 58.5277 17.9471L64.6789 13.7067L65.7957 22.5857C65.8235 22.7647 65.7957 22.9437 65.7554 23.1076C65.7 23.274 65.6193 23.4378 65.4957 23.5613C65.3747 23.7 65.2361 23.7958 65.0747 23.879C64.9109 23.9471 64.7319 23.9899 64.568 23.9899" stroke="white" stroke-width="0.54" stroke-linecap="round" stroke-linejoin="round"/>
<path d="M189.585 18.842V34.3387H171.3V18.842H109.84V55.6311H137.917V49.8504H117.328V40.1193H137.932V34.3387H117.328V24.6227H147.176V55.6311H154.649V24.6227H163.828V55.6311H171.313V40.1193H189.6V55.616H197.072V18.842H189.6H189.585Z" fill="white"/>
<path d="M202.009 55.6311H207.928V18.7185H202.009V55.6311Z" fill="white"/>
<path d="M213.149 30.6353H218.889V32.9496C220.893 30.9529 223.145 29.9471 225.653 29.9471C228.532 29.9471 230.781 30.8697 232.389 32.7C233.781 34.2555 234.477 36.8017 234.477 40.326V55.6437H228.736V41.6874C228.736 39.2244 228.393 37.5176 227.713 36.5823C227.045 35.6193 225.845 35.1504 224.1 35.1504C222.204 35.1504 220.853 35.7832 220.049 37.0487C219.272 38.3017 218.877 40.4773 218.877 43.5882V55.6437H213.136V30.6353H213.149Z" fill="white"/>
<path d="M242.74 43.0512C242.74 45.4462 243.381 47.4 244.649 48.9C245.957 50.4277 247.593 51.184 249.585 51.184C251.7 51.184 253.417 50.4555 254.725 48.9832C256.036 47.4555 256.689 45.5294 256.689 43.1899C256.689 40.8504 256.036 38.9092 254.725 37.3941C253.417 35.9092 251.725 35.1655 249.64 35.1655C247.677 35.1655 246.025 35.9218 244.704 37.4218C243.393 38.9496 242.74 40.8227 242.74 43.0639V43.0512ZM256.321 18.7185H262.064V55.6311H256.321V53.0168C254.072 55.2454 251.521 56.347 248.672 56.347C245.277 56.347 242.468 55.0941 240.232 52.6033C238.008 50.0571 236.904 46.8781 236.904 43.0512C236.904 39.2244 238.008 36.2118 240.232 33.7059C242.44 31.1874 245.209 29.9344 248.549 29.9344C251.453 29.9344 254.045 31.1319 256.336 33.5269V18.7185H256.321Z" fill="white"/>
<path d="M266.153 55.6311H271.868V30.6353H266.153V55.6311ZM265.296 22.447C265.296 21.4437 265.664 20.5613 266.385 19.8328C266.725 19.4748 267.136 19.2 267.585 19.0059C268.036 18.8143 268.513 18.7185 269.004 18.7311C270.04 18.7311 270.913 19.1017 271.649 19.8328C272.372 20.5487 272.74 21.4286 272.74 22.4748C272.74 23.521 272.372 24.416 271.649 25.1445C271.309 25.5025 270.913 25.7773 270.449 25.9714C270 26.163 269.509 26.2588 269.032 26.2462C268.54 26.2462 268.049 26.163 267.6 25.9714C267.149 25.7773 266.725 25.5025 266.385 25.1445C265.649 24.416 265.296 23.5084 265.296 22.447Z" fill="white"/>
<path d="M280.676 43.0513C280.676 45.4462 281.317 47.4 282.585 48.9C283.893 50.4277 285.529 51.184 287.521 51.184C289.636 51.184 291.353 50.4555 292.649 48.9832C293.957 47.4555 294.613 45.5269 294.613 43.1874C294.613 40.8479 293.957 38.9092 292.649 37.3941C291.34 35.9067 289.649 35.1655 287.561 35.1655C285.597 35.1655 283.949 35.9218 282.625 37.4218C281.317 38.9496 280.661 40.8353 280.661 43.0639L280.676 43.0513ZM294.257 30.6353H299.997V55.6311H294.257V53.0143C291.897 55.2454 289.361 56.3445 286.661 56.3445C283.24 56.3445 280.404 55.0941 278.168 52.6034C275.945 50.0571 274.84 46.8756 274.84 43.0513C274.84 39.2244 275.945 36.184 278.168 33.6781C280.389 31.1723 283.172 29.9344 286.513 29.9344C289.389 29.9344 291.981 31.1319 294.272 33.5269V30.6227L294.257 30.6353Z" fill="white"/>
</svg>

<svg xmlns="http://www.w3.org/2000/svg" width="300" height="69" fill="none"><path fill="#fff" d="M27.532 67.714c-6.791 0-13.528-2.422-19.28-7.086L7.24 59.8l10.38-11.836c.216-.247.531-.399.857-.426.327-.016.655.095.9.315.247.222.395.537.423.867.013.33-.096.66-.312.91l-8.632 9.84c7.252 5.395 16.008 7.089 24.231 4.623l10.05-3.028 10.05 3.028c8.209 2.466 16.964.784 24.217-4.61l-8.753-9.908c-.219-.25-.327-.58-.315-.91.015-.33.164-.646.409-.868.247-.219.575-.33.9-.315.327.013.642.164.86.414l10.5 11.891-1.022.825c-8.1 6.552-18.123 8.685-27.519 5.864l-9.34-2.809-9.34 2.809a28.4 28.4 0 0 1-8.252 1.21"/><path stroke="#fff" stroke-linejoin="round" stroke-width=".54" d="M27.532 67.714c-6.791 0-13.528-2.422-19.28-7.086L7.24 59.8l10.38-11.836c.216-.247.531-.399.857-.426.327-.016.655.095.9.315.247.222.395.537.423.867.013.33-.096.66-.312.91l-8.632 9.84c7.252 5.395 16.008 7.089 24.231 4.623l10.05-3.028 10.05 3.028c8.209 2.466 16.964.784 24.217-4.61l-8.753-9.908c-.219-.25-.327-.58-.315-.91.015-.33.164-.646.409-.868.247-.219.575-.33.9-.315.327.013.642.164.86.414l10.5 11.891-1.022.825c-8.1 6.552-18.123 8.685-27.519 5.864l-9.34-2.809-9.34 2.809a28.4 28.4 0 0 1-8.252 1.21"/><path fill="#fff" stroke="#fff" stroke-linecap="round" stroke-linejoin="round" stroke-width=".54" d="M45.124 62.456 24.668 50.55a17.6 17.6 0 0 1-5.36-6.373 17.8 17.8 0 0 1-1.852-8.145l.176-12.194 8.18 2.71c.165.055.3.123.44.234.12.109.231.235.3.386.08.151.12.302.136.466 0 .167 0 .33-.056.497a1.4 1.4 0 0 1-.244.426 1.4 1.4 0 0 1-.384.302c-.148.071-.312.111-.476.124-.164 0-.328 0-.492-.068l-4.976-1.651-.124 8.78a15.2 15.2 0 0 0 1.584 6.963 15.1 15.1 0 0 0 4.568 5.466l19.048 11.092L64.42 48.474A15 15 0 0 0 69 43.008a15.3 15.3 0 0 0 1.583-6.975l-.123-8.783-5.672 1.832a1.25 1.25 0 0 1-.943-.083 1.252 1.252 0 0 1 .191-2.299l8.852-2.849.163 12.154c.04 2.834-.6 5.642-1.855 8.173a17.55 17.55 0 0 1-5.387 6.373l-.109.068z"/><path fill="#fff" d="m45.179 42.555-17.251-9.95 17.251 24.61 16.868-24.61z"/><path fill="#fff" d="M45.177 0 28.472 28.132 45.15 38.344l16.91-10.076zM10.692 51.184c-.285 0-.56-.096-.777-.275a1.3 1.3 0 0 1-.436-.7c-.82-3.649-3.151-7.556-6.723-11.272L1.35 37.49l1.909-.618c4.227-1.349 7.91-1.543 11.279-.564.312.095.585.302.736.592.164.287.189.633.108.948-.083.318-.3.592-.587.744a1.24 1.24 0 0 1-.94.11c-2.413-.703-4.964-.703-7.924 0 3.11 3.593 5.156 7.337 5.975 10.93.04.176.04.37 0 .549a1.1 1.1 0 0 1-.247.494 1.2 1.2 0 0 1-.436.345 1.2 1.2 0 0 1-.532.124"/><path stroke="#fff" stroke-linecap="round" stroke-linejoin="round" stroke-width=".54" d="M10.692 51.184c-.285 0-.56-.096-.777-.275a1.3 1.3 0 0 1-.436-.7c-.82-3.649-3.151-7.556-6.723-11.272L1.35 37.49l1.909-.618c4.227-1.349 7.91-1.543 11.279-.564.312.095.585.302.736.592.164.287.189.633.108.948-.083.318-.3.592-.587.744a1.24 1.24 0 0 1-.94.11c-2.413-.703-4.964-.703-7.924 0 3.11 3.593 5.156 7.337 5.975 10.93.04.176.04.37 0 .549a1.1 1.1 0 0 1-.247.494 1.2 1.2 0 0 1-.436.345 1.2 1.2 0 0 1-.532.124"/><path fill="#fff" d="M79.677 51.184q-.286 0-.532-.123a1.6 1.6 0 0 1-.436-.343 1.15 1.15 0 0 1-.245-.497c-.04-.179-.04-.37 0-.55.817-3.592 2.864-7.336 5.972-10.928-2.96-.704-5.508-.704-7.923 0-.15.04-.313.055-.477.04a1.1 1.1 0 0 1-.464-.151 1.205 1.205 0 0 1-.585-.756c-.042-.152-.055-.318-.042-.482.015-.166.068-.317.15-.469a1.233 1.233 0 0 1 .736-.59c3.37-.978 7.065-.799 11.278.563l1.91.62-1.406 1.444c-3.573 3.716-5.904 7.611-6.721 11.272-.068.277-.22.524-.436.703-.22.179-.492.275-.78.275"/><path stroke="#fff" stroke-miterlimit="10" stroke-width=".54" d="M79.677 51.184q-.286 0-.532-.123a1.6 1.6 0 0 1-.436-.343 1.15 1.15 0 0 1-.245-.497c-.04-.179-.04-.37 0-.55.817-3.592 2.864-7.336 5.972-10.928-2.96-.704-5.508-.704-7.923 0-.15.04-.313.055-.477.04a1.1 1.1 0 0 1-.464-.151 1.205 1.205 0 0 1-.585-.756c-.042-.152-.055-.318-.042-.482.015-.166.068-.317.15-.469a1.233 1.233 0 0 1 .736-.59c3.37-.978 7.065-.799 11.278.563l1.91.62-1.406 1.444c-3.573 3.716-5.904 7.611-6.721 11.272-.068.277-.22.524-.436.703-.22.179-.492.275-.78.275"/><path fill="#fff" d="M25.392 24.003c-.177 0-.34-.04-.505-.111a1.3 1.3 0 0 1-.423-.303 1.2 1.2 0 0 1-.257-.454 1.3 1.3 0 0 1-.056-.522l.98-8.906 6.18 4.253c.257.194.436.481.504.799.053.317 0 .648-.192.922a1.23 1.23 0 0 1-.776.522c-.315.071-.655 0-.915-.179l-2.78-1.913-.533 4.777a1.22 1.22 0 0 1-.408.797c-.232.207-.52.318-.832.318"/><path stroke="#fff" stroke-linejoin="round" stroke-width=".54" d="M25.392 24.003c-.177 0-.34-.04-.505-.111a1.3 1.3 0 0 1-.423-.303 1.2 1.2 0 0 1-.257-.454 1.3 1.3 0 0 1-.056-.522l.98-8.906 6.18 4.253c.257.194.436.481.504.799.053.317 0 .648-.192.922a1.23 1.23 0 0 1-.776.522c-.315.071-.655 0-.915-.179l-2.78-1.913-.533 4.777a1.22 1.22 0 0 1-.408.797c-.232.207-.52.318-.832.318"/><path fill="#fff" d="M64.568 24.003a1.25 1.25 0 0 1-1.225-1.102l-.615-4.815-2.809 1.926c-.272.191-.6.262-.927.191a1.18 1.18 0 0 1-.792-.521 1.2 1.2 0 0 1-.19-.936c.069-.33.245-.62.518-.799l6.15-4.24 1.118 8.879c.027.179 0 .358-.04.522-.056.166-.137.33-.26.453-.121.139-.26.235-.421.318a1.4 1.4 0 0 1-.507.11"/><path stroke="#fff" stroke-linecap="round" stroke-linejoin="round" stroke-width=".54" d="M64.568 24.003a1.25 1.25 0 0 1-1.225-1.102l-.615-4.815-2.809 1.926c-.272.191-.6.262-.927.191a1.18 1.18 0 0 1-.792-.521 1.2 1.2 0 0 1-.19-.936c.069-.33.245-.62.518-.799l6.15-4.24 1.118 8.879c.027.179 0 .358-.04.522-.056.166-.137.33-.26.453-.121.139-.26.235-.421.318a1.4 1.4 0 0 1-.507.11"/><path fill="#fff" d="M189.585 18.842v15.497H171.3V18.842h-61.46v36.79h28.077V49.85h-20.589v-9.73h20.604v-5.781h-20.604v-9.716h29.848V55.63h7.473V24.623h9.179V55.63h7.485V40.12H189.6v15.497h7.472V18.842h-7.487M202.009 55.631h5.919V18.72h-5.919zM213.149 30.635h5.74v2.315c2.004-1.997 4.256-3.003 6.764-3.003 2.879 0 5.128.923 6.736 2.753 1.392 1.555 2.088 4.102 2.088 7.626v15.318h-5.741V41.687c0-2.463-.343-4.17-1.023-5.105-.668-.963-1.868-1.432-3.613-1.432q-2.844 0-4.051 1.899c-.777 1.253-1.172 3.428-1.172 6.54v12.055h-5.741V30.635zM242.74 43.051c0 2.395.641 4.349 1.909 5.849 1.308 1.528 2.944 2.284 4.936 2.284 2.115 0 3.832-.728 5.14-2.2 1.311-1.529 1.964-3.455 1.964-5.794 0-2.34-.653-4.28-1.964-5.796-1.308-1.485-3-2.228-5.085-2.228-1.963 0-3.615.756-4.936 2.256-1.311 1.528-1.964 3.4-1.964 5.642zm13.581-24.333h5.743v36.913h-5.743v-2.614c-2.249 2.228-4.8 3.33-7.649 3.33-3.395 0-6.204-1.253-8.44-3.744-2.224-2.546-3.328-5.725-3.328-9.552s1.104-6.84 3.328-9.345c2.208-2.519 4.977-3.772 8.317-3.772 2.904 0 5.496 1.198 7.787 3.593V18.718zM266.153 55.631h5.715V30.635h-5.715zm-.857-33.184c0-1.003.368-1.886 1.089-2.614.34-.358.751-.633 1.2-.827a3.4 3.4 0 0 1 1.419-.275c1.036 0 1.909.37 2.645 1.102.723.716 1.091 1.596 1.091 2.642s-.368 1.941-1.091 2.67c-.34.358-.736.632-1.2.826-.449.192-.94.288-1.417.275-.492 0-.983-.083-1.432-.275a3.7 3.7 0 0 1-1.215-.826c-.736-.729-1.089-1.637-1.089-2.698M280.676 43.051c0 2.395.641 4.349 1.909 5.849 1.308 1.528 2.944 2.284 4.936 2.284 2.115 0 3.832-.728 5.128-2.2 1.308-1.529 1.964-3.457 1.964-5.797s-.656-4.278-1.964-5.793c-1.309-1.487-3-2.228-5.088-2.228-1.964 0-3.612.756-4.936 2.256-1.308 1.528-1.964 3.413-1.964 5.642zm13.581-12.416h5.74v24.996h-5.74v-2.617c-2.36 2.231-4.896 3.33-7.596 3.33-3.421 0-6.257-1.25-8.493-3.74-2.223-2.547-3.328-5.728-3.328-9.553 0-3.827 1.105-6.867 3.328-9.373 2.221-2.506 5.004-3.744 8.345-3.744 2.876 0 5.468 1.198 7.759 3.593v-2.904z"/></svg>
